src/images/std-icons/std-verified.svg

<svg xmlns="http://www.w3.org/2000/svg" width="512" height="512" viewBox="0 0 512 512">
  <title>verified</title>
  <path fill="#000" fill-rule="nonzero" d="M458.67968,177.067733 L407.09568,151.467733 L398.165333,98.1354667 C395.526186,85.8404165 384.004242,77.5421606 371.50656,78.9354667 L315.523413,87.4688 L275.002667,49.0688 C266.254421,40.5322213 252.293845,40.5322213 243.5456,49.0688 L198.891947,87.4688 L142.9088,78.9354667 C136.782114,77.8316404 130.469247,79.2473472 125.400669,82.8617936 C120.33209,86.47624 116.936897,91.9834337 115.984427,98.1354667 L107.05344,151.466667 L55.6027733,177.066667 C44.8100547,182.718869 39.9889276,195.579127 44.4061867,206.933333 L71.0651733,256 L46.8046933,305.066667 C42.6732832,315.895921 46.337543,328.1498 55.73568,334.933333 L107.187413,360.533333 L116.117333,413.866667 C118.812432,426.243405 130.463766,434.55161 143.0432,433.066667 L199.026347,424.533333 L239.280213,462.933333 C247.978352,471.466076 261.906234,471.466076 270.604373,462.933333 L310.592,424.533333 L366.575147,433.066667 C372.722318,434.212067 379.07122,432.815962 384.170817,429.19743 C389.270414,425.578898 392.684831,420.047224 393.633707,413.866667 L402.564693,360.533333 L454.015147,334.933333 C459.381476,332.382471 463.415865,327.677486 465.11814,321.984802 C466.820416,316.292118 466.031194,310.144736 462.946133,305.066667 L443.0848,256 L442.952107,256 L467.61088,206.933333 C471.67411,196.101931 468.022231,183.890185 458.67968,177.067733 Z M346.509013,225.829333 L256,316.33984 C247.65494,324.636784 234.175886,324.636784 225.830827,316.33984 L165.490987,256 C157.159587,247.669013 157.159253,234.16148 165.49024,225.83008 C173.821227,217.498681 187.32876,217.498346 195.66016,225.829333 L240.915413,271.084587 L316.33984,195.66016 C324.687388,187.426846 338.114817,187.4731 346.405445,195.763728 C354.696073,204.054356 354.742327,217.481785 346.509013,225.829333 L346.509013,225.829333 Z"/>
</svg>

<svg xmlns="http://www.w3.org/2000/svg" viewBox="0 0 512 512">
  <title>
    verified
  </title>
  <path d="M458.68 177.07l-51.58-25.6-8.93-53.33a24.5 24.5 0 0 0-26.66-19.2l-55.99 8.53L275 49.07a22.52 22.52 0 0 0-31.45 0l-44.66 38.4-55.98-8.53a23.1 23.1 0 0 0-26.93 19.2l-8.93 53.33-51.45 25.6a23.92 23.92 0 0 0-11.2 29.86L71.08 256 46.8 305.07a25.59 25.59 0 0 0 8.94 29.86l51.45 25.6 8.93 53.34a24.6 24.6 0 0 0 26.92 19.2l55.99-8.54 40.25 38.4a22.37 22.37 0 0 0 31.32 0l40-38.4 55.98 8.54a23.1 23.1 0 0 0 27.05-19.2l8.93-53.34 51.46-25.6a21 21 0 0 0 8.93-29.86L443.08 256h-.13l24.66-49.07a25.77 25.77 0 0 0-8.93-29.86zm-112.17 48.76L256 316.34a21.4 21.4 0 0 1-30.17 0L165.5 256a21.33 21.33 0 1 1 30.17-30.17l45.26 45.25 75.42-75.42a21.33 21.33 0 0 1 30.17 30.17z"/>
</svg>
